X: 35490
T: Rúadhán's
R: reel
M: 4/4
K: Dmajor
B2 Bd BAAB|AF (3FFE DEFA|B3 d BAAg|fddc BBAF|
B2 Bd BAAB|AF (3FFE D2 DE|FAAF A2 FA|1 Bd (3efg fedc:|2 Bd (3efg fedf||
e2 ef e2 de|~f2 af fedf|eB (3BBB B2 ef|edBe dA (3Bcd|
e2 ef e2 de|~f2 af fedf|baaf ~a2 ba|1 feed eA (3Bcd:|2 feed e2 dc||

